static/img/kroki/82c81ecb802cc9fb895ba39b853fd945.svg

<?xml version="1.0" encoding="us-ascii" standalone="no"?><svg xmlns="http://www.w3.org/2000/svg" xmlns:xlink="http://www.w3.org/1999/xlink" contentStyleType="text/css" height="374px" preserveAspectRatio="none" style="width:261px;height:374px;" version="1.1" viewBox="0 0 261 374" width="261px" zoomAndPan="magnify"><defs/><g><!--class kubernetes_daemon_set--><g id="elem_kubernetes_daemon_set"><rect codeLine="23" fill="#3D176E" height="39.7891" id="kubernetes_daemon_set" rx="2.5" ry="2.5" style="stroke:#000D19;stroke-width:0.5;" width="247" x="7" y="328.58"/><ellipse cx="22" cy="348.4745" fill="#ADD1B2" rx="11" ry="11" style="stroke:#181818;stroke-width:1.0;"/><path d="M24.9688,354.1152 Q24.3906,354.412 23.75,354.5527 Q23.1094,354.7089 22.4063,354.7089 Q19.9063,354.7089 18.5781,353.0683 Q17.2656,351.412 17.2656,348.287 Q17.2656,345.162 18.5781,343.5058 Q19.9063,341.8495 22.4063,341.8495 Q23.1094,341.8495 23.75,342.0058 Q24.4063,342.162 24.9688,342.4589 L24.9688,345.1777 Q24.3438,344.5995 23.75,344.3339 Q23.1563,344.0527 22.5313,344.0527 Q21.1875,344.0527 20.5,345.1308 Q19.8125,346.1933 19.8125,348.287 Q19.8125,350.3808 20.5,351.4589 Q21.1875,352.5214 22.5313,352.5214 Q23.1563,352.5214 23.75,352.2558 Q24.3438,351.9745 24.9688,351.3964 L24.9688,354.1152 Z " fill="#000000"/><text fill="#D9B8FF" font-family="Helvetica" font-size="17" lengthAdjust="spacing" textLength="205" x="41" y="354.3598">kubernetes_daemon_set</text></g><!--class kubernetes_resource--><g id="elem_kubernetes_resource"><rect codeLine="26" fill="#3D176E" height="39.7891" id="kubernetes_resource" rx="2.5" ry="2.5" style="stroke:#000D19;stroke-width:0.5;" width="216" x="22.5" y="167.79"/><ellipse cx="37.5" cy="187.6845" fill="#ADD1B2" rx="11" ry="11" style="stroke:#181818;stroke-width:1.0;"/><path d="M40.4688,193.3252 Q39.8906,193.622 39.25,193.7627 Q38.6094,193.9189 37.9063,193.9189 Q35.4063,193.9189 34.0781,192.2783 Q32.7656,190.622 32.7656,187.497 Q32.7656,184.372 34.0781,182.7158 Q35.4063,181.0595 37.9063,181.0595 Q38.6094,181.0595 39.25,181.2158 Q39.9063,181.372 40.4688,181.6689 L40.4688,184.3877 Q39.8438,183.8095 39.25,183.5439 Q38.6563,183.2627 38.0313,183.2627 Q36.6875,183.2627 36,184.3408 Q35.3125,185.4033 35.3125,187.497 Q35.3125,189.5908 36,190.6689 Q36.6875,191.7314 38.0313,191.7314 Q38.6563,191.7314 39.25,191.4658 Q39.8438,191.1845 40.4688,190.6064 L40.4688,193.3252 Z " fill="#000000"/><text fill="#D9B8FF" font-family="Helvetica" font-size="17" lengthAdjust="spacing" textLength="174" x="56.5" y="193.5698">kubernetes_resource</text></g><!--class resource--><g id="elem_resource"><rect codeLine="29" fill="#3D176E" height="39.7891" id="resource" rx="2.5" ry="2.5" style="stroke:#000D19;stroke-width:0.5;" width="113" x="74" y="7"/><ellipse cx="89" cy="26.8945" fill="#ADD1B2" rx="11" ry="11" style="stroke:#181818;stroke-width:1.0;"/><path d="M91.9688,32.5352 Q91.3906,32.832 90.75,32.9727 Q90.1094,33.1289 89.4063,33.1289 Q86.9063,33.1289 85.5781,31.4883 Q84.2656,29.832 84.2656,26.707 Q84.2656,23.582 85.5781,21.9258 Q86.9063,20.2695 89.4063,20.2695 Q90.1094,20.2695 90.75,20.4258 Q91.4063,20.582 91.9688,20.8789 L91.9688,23.5977 Q91.3438,23.0195 90.75,22.7539 Q90.1563,22.4727 89.5313,22.4727 Q88.1875,22.4727 87.5,23.5508 Q86.8125,24.6133 86.8125,26.707 Q86.8125,28.8008 87.5,29.8789 Q88.1875,30.9414 89.5313,30.9414 Q90.1563,30.9414 90.75,30.6758 Q91.3438,30.3945 91.9688,29.8164 L91.9688,32.5352 Z " fill="#000000"/><text fill="#D9B8FF" font-family="Helvetica" font-size="17" lengthAdjust="spacing" textLength="71" x="108" y="32.7798">resource</text></g><!--reverse link kubernetes_resource to kubernetes_daemon_set--><g id="link_kubernetes_resource_kubernetes_daemon_set"><path codeLine="32" d="M130.5,225.84 C130.5,256.36 130.5,297.69 130.5,328.25 " fill="none" id="kubernetes_resource-backto-kubernetes_daemon_set" style="stroke:#FFAF37;stroke-width:2.0;"/><polygon fill="none" points="130.5,207.84,124.5,225.84,136.5,225.84,130.5,207.84" style="stroke:#FFAF37;stroke-width:2.0;"/></g><!--reverse link resource to kubernetes_resource--><g id="link_resource_kubernetes_resource"><path codeLine="33" d="M130.5,65.05 C130.5,95.57 130.5,136.9 130.5,167.46 " fill="none" id="resource-backto-kubernetes_resource" style="stroke:#FFAF37;stroke-width:2.0;"/><polygon fill="none" points="130.5,47.05,124.5,65.05,136.5,65.05,130.5,47.05" style="stroke:#FFAF37;stroke-width:2.0;"/></g><!--SRC=[XT9BQm8n50NW_VoAW6j1A-quq8qLIhkHKhkNE3bnmimamysTYdtyzsgj9Sv3j_Tyv9w4P4P1eAnu9qgKQv2FV6vi9KcMOaRajdDNE183hQMUnCtmqLc-2XQoX7X2yGusgMoAjyoakONtuYQ87cIQRyZLLXsFPvBMxoDO3jIyaDxFcCciQqPGHYNhgTPDsJnqC57Z-0ujvaY1_iXeD5BZf4ckhhfuxt-nD1yGu_3H5exHgjbQyQikjZo8e6JhegUyj-EBLChOZRWDPg_7JcH1P_Db9fNR7hIMXG_NU0R1yQx2l7Kh95Ebuqxyt8UZzF1q8g_tFzM2uLTAedHsvS7YCug-su3WNKqfmlXyreNlluR3OVUUg1-TakW7]--></g></svg>

<svg xmlns="http://www.w3.org/2000/svg" width="261" height="374" viewBox="0 0 261 374"><rect width="247" height="39.789" x="7" y="328.58" fill="#3D176E" rx="2.5" ry="2.5" style="stroke:#000d19;stroke-width:.5"/><circle cx="22" cy="348.474" r="11" fill="#ADD1B2" style="stroke:#181818;stroke-width:1"/><path d="M24.969 354.115q-.578.297-1.219.438-.64.156-1.344.156-2.5 0-3.828-1.64-1.312-1.657-1.312-4.782t1.312-4.781q1.328-1.656 3.828-1.656.703 0 1.344.156.656.156 1.219.453v2.719q-.625-.579-1.219-.844-.594-.281-1.219-.281-1.343 0-2.031 1.078-.687 1.062-.687 3.156t.687 3.172q.688 1.062 2.031 1.062.625 0 1.219-.265.594-.281 1.219-.86z"/><text x="41" y="354.36" fill="#D9B8FF" font-family="Helvetica" font-size="17" textLength="205">kubernetes_daemon_set</text><rect width="216" height="39.789" x="22.5" y="167.79" fill="#3D176E" rx="2.5" ry="2.5" style="stroke:#000d19;stroke-width:.5"/><circle cx="37.5" cy="187.685" r="11" fill="#ADD1B2" style="stroke:#181818;stroke-width:1"/><path d="M40.469 193.325q-.578.297-1.219.438-.64.156-1.344.156-2.5 0-3.828-1.64-1.312-1.657-1.312-4.782t1.312-4.781q1.328-1.656 3.828-1.656.703 0 1.344.156.656.156 1.219.453v2.719q-.625-.578-1.219-.844-.594-.281-1.219-.281-1.343 0-2.031 1.078-.687 1.062-.687 3.156t.687 3.172q.688 1.062 2.031 1.062.625 0 1.219-.265.594-.281 1.219-.86z"/><text x="56.5" y="193.57" fill="#D9B8FF" font-family="Helvetica" font-size="17" textLength="174">kubernetes_resource</text><rect width="113" height="39.789" x="74" y="7" fill="#3D176E" rx="2.5" ry="2.5" style="stroke:#000d19;stroke-width:.5"/><circle cx="89" cy="26.895" r="11" fill="#ADD1B2" style="stroke:#181818;stroke-width:1"/><path d="M91.969 32.535q-.578.297-1.219.438-.64.156-1.344.156-2.5 0-3.828-1.64-1.312-1.657-1.312-4.782t1.312-4.781q1.328-1.656 3.828-1.656.703 0 1.344.156.656.156 1.219.453v2.719q-.625-.578-1.219-.844-.594-.281-1.219-.281-1.344 0-2.031 1.078-.687 1.062-.687 3.156t.687 3.172q.688 1.062 2.031 1.062.625 0 1.219-.265.594-.281 1.219-.86z"/><text x="108" y="32.78" fill="#D9B8FF" font-family="Helvetica" font-size="17" textLength="71">resource</text><path fill="none" d="M130.5 225.84v102.41m0-120.41-6 18h12zm0-142.79v102.41m0-120.41-6 18h12z" style="stroke:#ffaf37;stroke-width:2"/></svg>
